X:1
L:1/8
Q:1/4=120
M:3/4
K:G
 z D |""G"" G6 |""D"" A6 |""G"" B6 | B4 z B |""C"" c6 |""G"" B3 G B2 |""D"" A6 | A4 z D |""C"" E6 |""D"" F6 | 
""G"" G2 A2 B2 |""C"" E2 A3 c |""G"" B6 |""D"" A6 |""G"" G6- | G4 |]
